apps/symbolic/preferences-system-notifications-symbolic.svg.svg

<svg height="24" viewBox="0 0 24 24" width="24" xmlns="http://www.w3.org/2000/svg"><path d="m13.8 19.2a1.8 1.8 0 0 1 -1.8 1.8 1.8 1.8 0 0 1 -1.8-1.8zm-1.8-16.2a.9.9 0 0 1  .9.9v.972c2.556.432 4.5 2.655 4.5 5.328v5.4l2.7 2.7h-16.2l2.7-2.7v-5.4c0-2.673 1.944-4.896 4.5-5.328v-.972a.9.9 0 0 1  .9-.9z" fill="#bebebe" stroke-width=".9"/></svg>

<?xml version="1.0" encoding="UTF-8" standalone="no"?>
<svg
   xmlns:dc="http://purl.org/dc/elements/1.1/"
   xmlns:cc="http://creativecommons.org/ns#"
   xmlns:rdf="http://www.w3.org/1999/02/22-rdf-syntax-ns#"
   xmlns:svg="http://www.w3.org/2000/svg"
   xmlns="http://www.w3.org/2000/svg"
   xmlns:sodipodi="http://sodipodi.sourceforge.net/DTD/sodipodi-0.dtd"
   xmlns:inkscape="http://www.inkscape.org/namespaces/inkscape"
   version="1.1"
   width="24"
   height="24"
   viewBox="0 0 24 24"
   id="svg2"
   inkscape:version="0.92.1 r15371"
   sodipodi:docname="preferences-system-notifications-symbolic.svg.svg">
  <metadata
     id="metadata10">
    <rdf:RDF>
      <cc:Work
         rdf:about="">
        <dc:format>image/svg+xml</dc:format>
        <dc:type
           rdf:resource="http://purl.org/dc/dcmitype/StillImage" />
        <dc:title></dc:title>
      </cc:Work>
    </rdf:RDF>
  </metadata>
  <defs
     id="defs8" />
  <sodipodi:namedview
     pagecolor="#ffffff"
     bordercolor="#666666"
     borderopacity="1"
     objecttolerance="10"
     gridtolerance="10"
     guidetolerance="10"
     inkscape:pageopacity="0"
     inkscape:pageshadow="2"
     inkscape:window-width="640"
     inkscape:window-height="480"
     id="namedview6"
     showgrid="false"
     inkscape:zoom="25.291667"
     inkscape:cx="4.9621087"
     inkscape:cy="12"
     inkscape:current-layer="svg2" />
  <path
     d="M 13.8,19.2 A 1.8,1.8 0 0 1 12,21 1.8,1.8 0 0 1 10.2,19.2 h 3.6 M 12,3 a 0.9,0.9 0 0 1 0.9,0.9 v 0.972 c 2.556,0.432 4.5,2.655 4.5,5.328 v 5.4 l 2.7,2.7 H 3.9 L 6.6,15.6 V 10.2 C 6.6,7.527 8.544,5.304 11.1,4.872 V 3.9 A 0.9,0.9 0 0 1 12,3 Z"
     id="path4"
     style="fill:#bebebe;fill-opacity:1;stroke-width:0.89999998"
     inkscape:connector-curvature="0" />
</svg>
